Sources/FrostedUI/Resources/Icons.xcassets/storefrontItem24.imageset/storefront-item-24.svg

<svg width="24" height="24" viewBox="0 0 24 24" fill="none" xmlns="http://www.w3.org/2000/svg" data-fui-icon="true">
  <path
    d="M16.5 8C16.9782 8 17.4463 8.13611 17.8506 8.3916L22.4658 11.3086C23.1095 11.7155 23.5 12.424 23.5 13.1855V18.3301C23.5 19.0916 23.1095 19.8001 22.4658 20.207L17.8506 23.124C17.4464 23.3794 16.9781 23.5156 16.5 23.5156C16.0219 23.5156 15.5536 23.3794 15.1494 23.124L10.5342 20.207C9.89046 19.8001 9.50004 19.0916 9.5 18.3301V13.1855C9.5 12.424 9.89046 11.7155 10.5342 11.3086L15.1494 8.3916C15.5537 8.13611 16.0218 8 16.5 8ZM16.5 9.5C16.3054 9.5 16.1147 9.55522 15.9502 9.65918L11.3359 12.5762C11.1271 12.7082 11 12.9385 11 13.1855V18.3301C11 18.5771 11.1271 18.8065 11.3359 18.9385L15.9502 21.8564C16.1146 21.9604 16.3055 22.0156 16.5 22.0156C16.6945 22.0156 16.8854 21.9604 17.0498 21.8564L21.6641 18.9385C21.8729 18.8065 22 18.5771 22 18.3301V13.1855C22 12.9385 21.8729 12.7082 21.6641 12.5762L17.0498 9.65918C16.8853 9.55522 16.6946 9.5 16.5 9.5ZM12.2002 13.2686C12.3974 12.9047 12.8527 12.7691 13.2168 12.9658L16.4971 14.7412L19.7783 12.9658C20.1424 12.7689 20.5977 12.9047 20.7949 13.2686C20.992 13.6328 20.8563 14.0879 20.4922 14.2852L17.2451 16.043V19.8994C17.245 20.3135 16.9092 20.6494 16.4951 20.6494C16.0811 20.6493 15.7453 20.3134 15.7451 19.8994V16.0391L12.5029 14.2852C12.1389 14.0879 12.0031 13.6327 12.2002 13.2686ZM19.75 1.5C21.8211 1.5 23.5 3.17893 23.5 5.25V8.75C23.5 9.16421 23.1642 9.5 22.75 9.5C22.3358 9.5 22 9.16421 22 8.75V5.25C22 4.00736 20.9926 3 19.75 3H4.25C3.00736 3 2 4.00736 2 5.25V16C2 17.2426 3.00736 18.25 4.25 18.25H7.25C7.66421 18.25 8 18.5858 8 19C8 19.4142 7.66421 19.75 7.25 19.75H4.25C2.17893 19.75 0.5 18.0711 0.5 16V5.25C0.5 3.17893 2.17893 1.5 4.25 1.5H19.75ZM4.875 4.5C5.49632 4.5 6 5.00368 6 5.625C6 6.24632 5.49632 6.75 4.875 6.75C4.25368 6.75 3.75 6.24632 3.75 5.625C3.75 5.00368 4.25368 4.5 4.875 4.5ZM8.625 4.5C9.24632 4.5 9.75 5.00368 9.75 5.625C9.75 6.24632 9.24632 6.75 8.625 6.75C8.00368 6.75 7.5 6.24632 7.5 5.625C7.5 5.00368 8.00368 4.5 8.625 4.5ZM12.375 4.5C12.9963 4.5 13.5 5.00368 13.5 5.625C13.5 6.24632 12.9963 6.75 12.375 6.75C11.7537 6.75 11.25 6.24632 11.25 5.625C11.25 5.00368 11.7537 4.5 12.375 4.5Z"
    fill="currentColor"
  />
</svg>

<svg xmlns="http://www.w3.org/2000/svg" width="24" height="24" fill="none" data-fui-icon="true" viewBox="0 0 24 24"><path fill="currentColor" d="M16.5 8c.478 0 .946.136 1.35.392l4.616 2.917a2.22 2.22 0 0 1 1.034 1.877v5.144c0 .762-.39 1.47-1.034 1.877l-4.615 2.917a2.53 2.53 0 0 1-2.702 0l-4.615-2.917A2.22 2.22 0 0 1 9.5 18.33v-5.144c0-.762.39-1.47 1.034-1.877l4.615-2.917A2.53 2.53 0 0 1 16.5 8m0 1.5a1.03 1.03 0 0 0-.55.16l-4.614 2.916a.72.72 0 0 0-.336.61v5.144a.72.72 0 0 0 .336.609l4.614 2.917a1.03 1.03 0 0 0 1.1 0l4.614-2.918A.72.72 0 0 0 22 18.33v-5.144a.72.72 0 0 0-.336-.61L17.05 9.66a1.03 1.03 0 0 0-.55-.159m-4.3 3.769a.75.75 0 0 1 1.017-.303l3.28 1.775 3.281-1.775a.75.75 0 0 1 .714 1.32l-3.247 1.757v3.856a.75.75 0 0 1-1.5 0v-3.86l-3.242-1.754a.75.75 0 0 1-.303-1.016M19.75 1.5a3.75 3.75 0 0 1 3.75 3.75v3.5a.75.75 0 0 1-1.5 0v-3.5A2.25 2.25 0 0 0 19.75 3H4.25A2.25 2.25 0 0 0 2 5.25V16a2.25 2.25 0 0 0 2.25 2.25h3a.75.75 0 0 1 0 1.5h-3A3.75 3.75 0 0 1 .5 16V5.25A3.75 3.75 0 0 1 4.25 1.5zm-14.875 3a1.125 1.125 0 1 1 0 2.25 1.125 1.125 0 0 1 0-2.25m3.75 0a1.125 1.125 0 1 1 0 2.25 1.125 1.125 0 0 1 0-2.25m3.75 0a1.125 1.125 0 1 1 0 2.25 1.125 1.125 0 0 1 0-2.25"/></svg>
